24x24/panel/zim-panel.svg

<svg xmlns="http://www.w3.org/2000/svg" width="24" height="24" version="1.1">
 <defs>
  <style id="current-color-scheme" type="text/css">
   .ColorScheme-Text { color:#323a41; } .ColorScheme-Highlight { color:#4285f4; } .ColorScheme-NeutralText { color:#ff9800; } .ColorScheme-PositiveText { color:#4caf50; } .ColorScheme-NegativeText { color:#f44336; }
  </style>
 </defs>
 <path style="opacity:0.3;fill:currentColor" class="ColorScheme-Text" d="M 12.001,4 C 7.569,4 4.001,7.568 4.001,12 4.001,12.837 4.1299,13.643 4.3662,14.4 L 4.376,14.348 C 4.5209,13.783 4.8003,13.197 5.2998,12.734 5.8872,12.19 6.5706,12.043 7.2783,12.031 7.3954,11.784 7.4894,11.52 7.7236,11.348 7.8216,11.275 7.9291,11.305 8.0342,11.258 L 8.0557,11.203 C 8.3391,10.666 8.7093,10.26 9.2275,9.6758 9.9345,8.8788 11.032,8.1397 12.05,7.4785 13.068,6.8169 16.099,5.1328 16.099,5.1328 14.9,4.4185 13.503,4 12.001,4 Z M 19.366,8.8652 C 19.366,8.8652 17.24,11.579 16.425,12.469 15.611,13.357 14.703,14.315 13.798,14.883 13.202,15.257 12.751,15.376 12.272,15.559 12.197,15.982 12.009,16.382 11.638,16.656 11.408,16.826 11.129,16.81 10.862,16.852 10.737,17.305 10.519,17.759 10.126,18.16 L 10.106,18.18 10.087,18.199 C 9.5446,18.696 8.8816,18.919 8.2646,18.99 L 8.1123,18.996 C 9.2624,19.634 10.587,20 12.001,20 16.433,20 20.001,16.432 20.001,12 20.001,10.886 19.774,9.8273 19.366,8.8652 Z"/>
 <path style="fill:currentColor" class="ColorScheme-Text" d="M 19.175,5.0078 C 18.866,4.9733 18.572,5.0905 18.29,5.1895 18.29,5.1895 17.322,5.6203 16.806,5.8867 16.289,6.1531 15.783,6.4304 15.388,6.6523 14.992,6.8742 13.588,7.6709 12.595,8.3164 11.602,8.9618 10.52,9.7265 9.9756,10.34 9.7062,10.643 9.4956,10.883 9.3232,11.102 9.6611,11.212 9.9697,11.419 10.192,11.721 L 12.011,14.188 C 12.111,14.324 12.182,14.474 12.237,14.627 12.527,14.481 12.841,14.302 13.267,14.035 13.966,13.596 14.894,12.66 15.688,11.793 16.483,10.926 17.483,9.6838 17.755,9.3359 18.027,8.9879 18.37,8.5406 18.706,8.082 19.042,7.6233 19.369,7.153 19.61,6.752 19.731,6.5514 19.831,6.3688 19.899,6.209 19.968,6.0493 20.016,5.9189 19.997,5.7754 19.965,5.5368 19.845,5.3966 19.774,5.3242 L 19.765,5.3125 C 19.681,5.2113 19.587,5.1475 19.489,5.0996 19.383,5.0483 19.278,5.0193 19.175,5.0078 Z M 8.8857,12.01 C 8.6921,11.98 8.4882,12.026 8.3174,12.152 7.9758,12.404 7.9035,12.881 8.1553,13.223 L 9.9717,15.689 C 10.223,16.031 10.702,16.103 11.044,15.852 11.386,15.6 11.458,15.123 11.206,14.781 L 9.3877,12.314 C 9.2618,12.144 9.0793,12.039 8.8857,12.01 Z M 7.0381,13.033 C 6.6221,13.095 6.2151,13.25 5.9795,13.469 5.6562,13.768 5.4531,14.173 5.3447,14.596 5.1667,15.289 5.1548,16.286 5.0185,17.023 4.9509,17.389 4.6417,17.959 4.0654,18.697 3.9182,18.945 4.0654,18.977 4.0654,18.977 4.148,19.035 4.2986,18.976 4.374,18.943 5.7075,17.847 6.5884,18.003 8.1494,17.996 8.6086,17.943 9.0627,17.78 9.4111,17.461 9.6375,17.23 9.7625,17.027 9.8525,16.826 9.5884,16.707 9.3482,16.529 9.167,16.283 L 7.3486,13.816 C 7.1744,13.58 7.0779,13.309 7.0381,13.033 Z"/>
</svg>

<svg xmlns="http://www.w3.org/2000/svg" width="24" height="24"><defs><style id="current-color-scheme" type="text/css">.ColorScheme-Text{color:#d3dae3}</style></defs><path class="ColorScheme-Text" d="M12.001 4c-4.432 0-8 3.568-8 8 0 .837.129 1.643.365 2.4l.01-.052c.145-.565.424-1.15.924-1.614.587-.544 1.27-.691 1.978-.703.117-.247.211-.51.446-.683.098-.073.205-.043.31-.09.013-.027.006-.025.022-.055.283-.537.653-.943 1.172-1.527.707-.797 1.804-1.536 2.822-2.197 1.018-.662 1.808-1.127 2.133-1.293-.105.053.313-.18.714-.405.334-.187.768-.42 1.202-.648A7.972 7.972 0 0 0 12 4zm7.365 4.865a57.051 57.051 0 0 1-1.326 1.725v.002c-.214.288-.8.987-1.615 1.877-.814.888-1.722 1.846-2.627 2.414-.596.374-1.047.493-1.526.676-.075.423-.263.823-.634 1.097-.23.17-.509.154-.776.196a2.942 2.942 0 0 1-.736 1.308l-.02.02-.02.02c-.541.496-1.204.72-1.821.79l-.055.006h-.097A7.988 7.988 0 0 0 12 20c4.432 0 8-3.568 8-8a8.006 8.006 0 0 0-.635-3.135z" opacity=".3" fill="currentColor"/><path class="ColorScheme-Text" d="M19.175 5.008c-.309-.035-.603.082-.885.181v.004c-.442.173-.968.427-1.484.694-.517.266-1.023.543-1.418.765-.396.222-.692.394-.746.422a34.14 34.14 0 0 0-2.047 1.242c-.993.646-2.075 1.41-2.62 2.024-.269.303-.48.543-.652.762.338.11.647.317.87.619l1.818 2.467c.1.136.171.286.226.439.29-.146.604-.325 1.03-.592.699-.439 1.627-1.375 2.421-2.242a33.536 33.536 0 0 0 1.55-1.799c.039-.053.245-.31.517-.658.272-.348.615-.795.951-1.254.336-.459.663-.929.904-1.33.121-.2.22-.383.29-.543.068-.16.116-.29.097-.434a.771.771 0 0 0-.223-.45l-.01-.013a.809.809 0 0 0-.275-.212.965.965 0 0 0-.314-.092zM8.885 12.01a.762.762 0 0 0-.568.142.763.763 0 0 0-.162 1.07l1.817 2.467a.766.766 0 1 0 1.234-.908l-1.818-2.467a.765.765 0 0 0-.502-.304zm-1.847 1.023c-.416.062-.823.217-1.059.436-.323.3-.526.704-.634 1.127-.178.693-.19 1.69-.326 2.427-.068.366-.377.936-.954 1.674-.147.248 0 .28 0 .28.083.058.234 0 .309-.034 1.334-1.096 2.214-.94 3.775-.947.46-.053.914-.216 1.262-.535.227-.231.351-.434.442-.635a1.722 1.722 0 0 1-.686-.543l-1.818-2.467a1.72 1.72 0 0 1-.31-.783z" fill="currentColor" fill-rule="evenodd"/></svg>
